X:1
T:Sugarloaf Mountain, LMD
T:Sugarloaf Mountain, LMD
T:A. F. Myers, 1894
T:Public Domain Courtesy of the Cyber Hymnal™
C:A. F. Myers, 1894
Z:Public Domain
Z:Courtesy of the Cyber Hymnal™
%%score ( 1 2 ) ( 3 4 )
L:1/8
Q:1/4=88
M:4/4
K:F
V:1 treble 
V:2 treble 
V:3 bass 
V:4 bass 
V:1
 AF>G | (z [FA])AB>^G x2 | (z [FA])AG>^F x2 | z [E=G]BA>G x2 | z [FA]AF>^G x2 | z [FA]cc>c x2 | %6
 (z [FB])BA>^G x2 | z [FA]AG>E x2 | z [CF][FA][GB]>[^G=B] x2 | [Ac]4- [Ac][Ac] [Bd]>[^G=B] | %10
 [Ac]4- [Ac][Ac] [GB]>[^FA] | [GB]4- [GB][Bd] [Ac]>[GB] | [FA]4- [FA]A F>G | (z [FA])cc>c x2 | %14
 z [FB]BA>^G x2 | z [FA][FA][EG]>[CE] x2 | [CF]4- [CF] |] %17
V:2
 x3 | (A4- F F3/2 F/) | A4- ^F F3/2 F/ | ^G4- E E3/2 E/ | A4- F F3/2 F/ | A4- F F3/2 F/ | %6
 B4- F F3/2 F/ | A4- F F3/2 F/ | F4- C C3/2 C/ | x8 | x8 | x8 | x8 | A4- F F3/2 F/ | B4 F F3/2 F/ | %15
 A4 F F3/2 F/ | x5 |] %17
V:3
 CA,>B, | (z [F,C])CD>=B, x2 | (z [F,C])CB,>A, x2 | z [C,_B,]DC>B, x2 | z [F,C]CA,>=B, x2 | %5
 z [F,C]_EE>E x2 | (z [B,,D])DC>=B, x2 | z [C,C]CB,>G, x2 | z [F,A,] z3 x2 | %9
 z ([F,F] [F,F]>[F,F] [F,F]) z3 | z ([F,F][F,F]>[F,F] [F,F]) z3 | z ([C,E][C,E]>[C,E] [C,E]) z3 | %12
 z ([F,C][F,C]>[F,C] [F,C])C A,>B, | (z [F,C])_EE>E x2 | z [B,,D]DC>=B, x2 | %15
 z [C,C][C,C][C,B,]>[C,G,] x2 | [F,,F,A,]4- [F,,F,A,] |] %17
V:4
 x3 | (C4- F, F,3/2 F,/) | C4- F, F,3/2 F,/ | =B,4- C, C,3/2 C,/ | C4- F, F,3/2 F,/ | %5
 C4- F, F,3/2 F,/ | D4- =B,, B,,3/2 B,,/ | C4- C, C,3/2 C,/ | A,4- F, F,3/2 F,/ | x8 | x8 | x8 | %12
 x8 | C4- F, F,3/2 F,/ | D4 =B,, B,,3/2 B,,/ | C4 C, C,3/2 C,/ | x5 |] %17

